images_elementary_svg/cmd/32/hu/italic.svg

<svg height="32" width="32" xmlns="http://www.w3.org/2000/svg" xmlns:xlink="http://www.w3.org/1999/xlink"><radialGradient id="a" cx="11.680322" cy="15.261165" gradientTransform="matrix(-1.863628 -.00000004 .00000006 -2.5413115 29.871205 50.079055)" gradientUnits="userSpaceOnUse" r="4.455698"><stop offset="0" stop-color="#737373"/><stop offset=".26238" stop-color="#636363"/><stop offset=".704952" stop-color="#4b4b4b"/><stop offset="1" stop-color="#3f3f3f"/></radialGradient><radialGradient id="b" cx="40" cy="43.5" gradientTransform="matrix(1 0 0 .75 -24.468372 9.875001)" gradientUnits="userSpaceOnUse" r="2" xlink:href="#c"/><linearGradient id="c"><stop offset="0"/><stop offset="1" stop-opacity="0"/></linearGradient><radialGradient id="d" cx="9" cy="43.5" gradientTransform="matrix(1 0 0 .75 -4 9.875)" gradientUnits="userSpaceOnUse" r="2" xlink:href="#c"/><linearGradient id="e" gradientUnits="userSpaceOnUse" x1="16" x2="16" y1="44" y2="41"><stop offset="0" stop-opacity="0"/><stop offset=".5"/><stop offset="1" stop-opacity="0"/></linearGradient><g transform="matrix(.80709274 0 0 1.3158295 3.464537 -29.896499)"><path d="m15.531627 41v3h.5c.831 0 1.500001-.669 1.500001-1.5s-.669001-1.5-1.500001-1.5z" fill="url(#b)" opacity=".2"/><path d="m4.40625 41c-.7790625 0-1.40625.627187-1.40625 1.40625v.1875c0 .779063.6271875 1.40625 1.40625 1.40625h.59375v-3z" fill="url(#d)" opacity=".2"/><path d="m5 41h10.531627v3h-10.531627z" fill="url(#e)" opacity=".2"/></g><path d="m18.207349 20.202557q-.401121 2.005606-1.225045 3.523362-.823925 1.506915-2.016447 2.525979-1.181682 1.008224-2.72112 1.517756-1.539438.509532-3.3607446.509532h-3.9678472l3.1656049-15.849706h4.4123329q1.65869 0 2.905418.498691 1.246728.498691 1.994765 1.485232.748037.9757.964859 2.428409.227663 1.45271-.151776 3.360745zm-2.14654.06505q.314392-1.582802.184299-2.73196-.119252-1.160002-.661308-1.908039-.531215-.748037-1.452709-1.105794-.921495-.368597-2.189905-.368597h-2.1790635l-2.4826148 12.391391h1.7562603q2.862054 0 4.629155-1.582802 1.767101-1.582803 2.395886-4.694202z" fill="url(#a)" stroke="#000" stroke-opacity=".6" stroke-width=".754888" transform="matrix(1.32470039 0 0 1.3247003 .527073 -10.963391)"/><path d="m11.232422 5.5019531-4.1933595 20.9960939h.2988281l3.8945314-19.4960939h5.845703c1.464845 0 2.748582.2197454 3.849609.6601563 1.101028.4404109 1.980009 1.0975023 2.640625 1.96875.660617.8616736 1.087814 1.9338606 1.279297 3.2167966.04035.257468.061322.529071.080078.802735.051471-.826661.030434-1.597562-.080078-2.302735-.191483-1.282936-.61868-2.3551231-1.279297-3.2167966-.660616-.8712477-1.539597-1.5283391-2.640625-1.96875-1.101027-.4404109-2.384764-.6601563-3.849609-.6601563zm10.830078 8.5214849c-.043258.578197-.127711 1.1965-.259766 1.861328-.5553 2.747781-1.613241 4.820924-3.173828 6.21875-1.560586 1.397826-3.605236 2.097656-6.132812 2.097656h-2.025391l-.300781 1.5h2.326172c2.527576 0 4.572226-.69983 6.132812-2.097656 1.560587-1.397826 2.618528-3.470969 3.173828-6.21875.255195-1.284771.336183-2.400081.259766-3.361328z" fill="#fff" opacity=".2" transform="translate(-.000001)"/></svg>

<?xml version="1.0" encoding="UTF-8" standalone="no"?>
<svg
   xmlns:dc="http://purl.org/dc/elements/1.1/"
   xmlns:cc="http://creativecommons.org/ns#"
   xmlns:rdf="http://www.w3.org/1999/02/22-rdf-syntax-ns#"
   xmlns:svg="http://www.w3.org/2000/svg"
   xmlns="http://www.w3.org/2000/svg"
   xmlns:xlink="http://www.w3.org/1999/xlink"
   xmlns:sodipodi="http://sodipodi.sourceforge.net/DTD/sodipodi-0.dtd"
   xmlns:inkscape="http://www.inkscape.org/namespaces/inkscape"
   height="32"
   width="32"
   version="1.1"
   id="svg41"
   sodipodi:docname="italic.svg"
   inkscape:version="0.92.4 (unknown)"
   inkscape:export-filename="/home/rizmut/Dokumen/Rizmut/Github/libreoffice-style-elementary/images_elementary/cmd/32/hu/italic.png"
   inkscape:export-xdpi="96"
   inkscape:export-ydpi="96">
  <metadata
     id="metadata47">
    <rdf:RDF>
      <cc:Work
         rdf:about="">
        <dc:format>image/svg+xml</dc:format>
        <dc:type
           rdf:resource="http://purl.org/dc/dcmitype/StillImage" />
        <dc:title />
      </cc:Work>
    </rdf:RDF>
  </metadata>
  <defs
     id="defs45">
    <radialGradient
       inkscape:collect="always"
       xlink:href="#e"
       id="radialGradient903"
       cx="11.680322"
       cy="15.261165"
       fx="11.680322"
       fy="15.261165"
       r="4.4556975"
       gradientTransform="matrix(-1.863628,-4.4565651e-8,6.077128e-8,-2.5413115,29.871205,50.079055)"
       gradientUnits="userSpaceOnUse" />
  </defs>
  <sodipodi:namedview
     pagecolor="#ffffff"
     bordercolor="#666666"
     borderopacity="1"
     objecttolerance="10"
     gridtolerance="10"
     guidetolerance="10"
     inkscape:pageopacity="0"
     inkscape:pageshadow="2"
     inkscape:window-width="1366"
     inkscape:window-height="714"
     id="namedview43"
     showgrid="true"
     inkscape:zoom="7.375"
     inkscape:cx="-27.668452"
     inkscape:cy="4.117731"
     inkscape:window-x="0"
     inkscape:window-y="28"
     inkscape:window-maximized="1"
     inkscape:current-layer="g39">
    <inkscape:grid
       type="xygrid"
       id="grid854" />
  </sodipodi:namedview>
  <radialGradient
     id="a"
     cx="40"
     cy="43.5"
     gradientTransform="matrix(1,0,0,0.75,-24.468372,9.8750008)"
     gradientUnits="userSpaceOnUse"
     r="2"
     xlink:href="#b" />
  <linearGradient
     id="b">
    <stop
       offset="0"
       id="stop3" />
    <stop
       offset="1"
       stop-opacity="0"
       id="stop5" />
  </linearGradient>
  <radialGradient
     id="c"
     cx="9"
     cy="43.5"
     gradientTransform="matrix(1,0,0,0.75,-4,9.875)"
     gradientUnits="userSpaceOnUse"
     r="2"
     xlink:href="#b" />
  <linearGradient
     id="d"
     gradientUnits="userSpaceOnUse"
     x1="16"
     x2="16"
     y1="44"
     y2="41">
    <stop
       offset="0"
       stop-opacity="0"
       id="stop9" />
    <stop
       offset=".5"
       id="stop11" />
    <stop
       offset="1"
       stop-opacity="0"
       id="stop13" />
  </linearGradient>
  <radialGradient
     id="e"
     cx="12.279661"
     cy="7.140932"
     gradientTransform="matrix(-3.1675784,0.07135103,-0.0749702,-3.3513607,41.983743,34.643483)"
     gradientUnits="userSpaceOnUse"
     r="5.015671">
    <stop
       offset="0"
       stop-color="#737373"
       id="stop16" />
    <stop
       offset=".26238"
       stop-color="#636363"
       id="stop18" />
    <stop
       offset=".704952"
       stop-color="#4b4b4b"
       id="stop20" />
    <stop
       offset="1"
       stop-color="#3f3f3f"
       id="stop22" />
  </radialGradient>
  <g
     transform="matrix(1.333631 0 0 1.3158295 .527073 -10.963391)"
     id="g39">
    <g
       transform="matrix(0.60518445,0,0,1,2.2026057,-14.388724)"
       id="g31">
      <path
         d="m 15.531627,41 v 3 h 0.5 c 0.831,0 1.500001,-0.669 1.500001,-1.5 0,-0.831 -0.669001,-1.5 -1.500001,-1.5 z"
         id="path25"
         style="opacity:0.2;fill:url(#a)"
         inkscape:connector-curvature="0" />
      <path
         d="M 4.40625,41 C 3.6271875,41 3,41.627187 3,42.40625 v 0.1875 C 3,43.372813 3.6271875,44 4.40625,44 H 5 v -3 z"
         id="path27"
         style="opacity:0.2;fill:url(#c)"
         inkscape:connector-curvature="0" />
      <path
         d="m 5,41 h 10.531627 v 3 H 5 Z"
         id="path29"
         style="opacity:0.2;fill:url(#d)"
         inkscape:connector-curvature="0"
         sodipodi:nodetypes="ccccc" />
    </g>
    <g
       aria-label="D"
       transform="scale(0.99330354,1.0067416)"
       style="font-style:normal;font-variant:normal;font-weight:normal;font-stretch:normal;font-size:30.19550896px;line-height:1.25;font-family:'Droid Sans';-inkscape-font-specification:'Droid Sans';letter-spacing:0px;word-spacing:0px;fill:url(#radialGradient903);fill-opacity:1;stroke:#000000;stroke-width:0.7548877;stroke-opacity:0.6"
       id="text858">
      <path
         d="m 18.207349,20.202557 q -0.401121,2.005606 -1.225045,3.523362 -0.823925,1.506915 -2.016447,2.525979 -1.181682,1.008224 -2.72112,1.517756 -1.539438,0.509532 -3.3607446,0.509532 H 4.9161452 L 8.0817501,12.42948 h 4.4123329 q 1.65869,0 2.905418,0.498691 1.246728,0.498691 1.994765,1.485232 0.748037,0.9757 0.964859,2.428409 0.227663,1.45271 -0.151776,3.360745 z m -2.14654,0.06505 q 0.314392,-1.582802 0.184299,-2.73196 Q 16.125856,16.375645 15.5838,15.627608 15.052585,14.879571 14.131091,14.521814 13.209596,14.153217 11.941186,14.153217 H 9.7621225 L 7.2795077,26.544608 H 9.035768 q 2.862054,0 4.629155,-1.582802 1.767101,-1.582803 2.395886,-4.694202 z"
         style="font-style:italic;font-size:22.20259857px;fill:url(#radialGradient903);fill-opacity:1;stroke:#000000;stroke-width:0.7548877;stroke-opacity:0.6"
         id="path835" />
    </g>
    <path
       style="font-style:normal;font-variant:normal;font-weight:normal;font-stretch:normal;font-size:30.19550896px;line-height:1.25;font-family:'Droid Sans';-inkscape-font-specification:'Droid Sans';letter-spacing:0px;word-spacing:0px;fill:#ffffff;fill-opacity:1;stroke:none;stroke-width:1;stroke-opacity:0.6;opacity:0.2"
       d="M 11.232422 5.5019531 L 7.0390625 26.498047 L 7.3378906 26.498047 L 11.232422 7.0019531 L 17.078125 7.0019531 C 18.54297 7.0019531 19.826707 7.2216985 20.927734 7.6621094 C 22.028762 8.1025203 22.907743 8.7596117 23.568359 9.6308594 C 24.228976 10.492533 24.656173 11.56472 24.847656 12.847656 C 24.888006 13.105124 24.908978 13.376727 24.927734 13.650391 C 24.979205 12.82373 24.958168 12.052829 24.847656 11.347656 C 24.656173 10.06472 24.228976 8.9925329 23.568359 8.1308594 C 22.907743 7.2596117 22.028762 6.6025203 20.927734 6.1621094 C 19.826707 5.7216985 18.54297 5.5019531 17.078125 5.5019531 L 11.232422 5.5019531 z M 22.0625 14.023438 C 22.019242 14.601635 21.934789 15.219938 21.802734 15.884766 C 21.247434 18.632547 20.189493 20.70569 18.628906 22.103516 C 17.06832 23.501342 15.02367 24.201172 12.496094 24.201172 L 10.470703 24.201172 L 10.169922 25.701172 L 12.496094 25.701172 C 15.02367 25.701172 17.06832 25.001342 18.628906 23.603516 C 20.189493 22.20569 21.247434 20.132547 21.802734 17.384766 C 22.057929 16.099995 22.138917 14.984685 22.0625 14.023438 z "
       transform="matrix(0.7498326,0,0,0.75997688,-0.39521652,8.3319237)"
       id="text958" />
  </g>
</svg>
